Origami/64x64/apps/ktorrent.svg

<svg width="64" height="64" version="1" xmlns="http://www.w3.org/2000/svg">
 <path d="m22.88626 5.0015988c-1.199966 0-2.733922 1.2669638-2.885917 2.8241194v21.175396h-11.999658l23.999315 23.999314 23.999315-23.999314h-11.999658v-21.175396c0-1.5639554-1.685951-2.8239194-2.885917-2.8239194h-18.22748zm-16.084741 49.998572c-1.5511557 0-2.80072 1.337962-2.80072 2.999915 0 1.661952 1.2495643 2.999914 2.80072 2.999914h50.398562c1.549955 0 2.79992-1.337962 2.79992-2.999914 0-1.661953-1.249965-2.999915-2.79992-2.999915h-50.398562z" style="opacity:.2"/>
 <path d="m22.88626 4.0016559c-1.199966 0-2.733922 1.2669638-2.885917 2.8241194v21.175396h-11.999658l23.999315 23.999314 23.999315-23.999314h-11.999658v-21.175396c0-1.5639554-1.685951-2.8239194-2.885917-2.8239194h-18.22748zm-16.084741 49.998572c-1.5511557 0-2.80072 1.337962-2.80072 2.999915 0 1.661952 1.2495643 2.999914 2.80072 2.999914h50.398562c1.549955 0 2.79992-1.337962 2.79992-2.999914 0-1.661953-1.249965-2.999915-2.79992-2.999915h-50.398562z" style="fill:#358de7"/>
 <path d="m22.886719 4.0019531c-1.199966 0-2.734724 1.2670632-2.886719 2.8242188v1c0.151995-1.5571556 1.686753-2.8242188 2.886719-2.8242188h18.226562c1.199966 0 2.886719 1.2600634 2.886719 2.8242188v-1c0-1.5641554-1.686753-2.8242188-2.886719-2.8242188h-18.226562zm-14.886719 23.998047l1 1h11v-1h-12zm36 0v1h11l1-1h-12zm-37.199219 26c-1.5511558 0-2.8007812 1.338047-2.8007812 3 0 0.174335 0.0177363 0.343671 0.046875 0.507812 0.2193755-1.424481 1.3603926-2.507812 2.7539062-2.507812h25.199219 25.199219c1.392435 0 2.534476 1.083331 2.753906 2.507812 0.029163-0.164141 0.046875-0.333477 0.046875-0.507812 0-1.661953-1.250826-3-2.800781-3h-25.199219-25.199219z" style="fill:#ffffff;opacity:.2"/>
</svg>

<svg xmlns="http://www.w3.org/2000/svg" width="64" height="64" version="1">
 <path style="opacity:0.2" d="m 22.88626,5.0015988 c -1.199966,0 -2.733922,1.2669638 -2.885917,2.8241194 l 0,21.1753958 -11.9996578,0 L 32,53.000428 55.999315,29.001114 l -11.999658,0 0,-21.1753958 c 0,-1.5639554 -1.685951,-2.8239194 -2.885917,-2.8239194 l -18.22748,0 z M 6.8015194,55.000171 c -1.5511557,0 -2.80072,1.337962 -2.80072,2.999915 0,1.661952 1.2495643,2.999914 2.80072,2.999914 l 50.3985616,0 c 1.549955,0 2.79992,-1.337962 2.79992,-2.999914 0,-1.661953 -1.249965,-2.999915 -2.79992,-2.999915 l -50.3985616,0 z"/>
 <path style="fill:#358de7" d="m 22.88626,4.0016559 c -1.199966,0 -2.733922,1.2669638 -2.885917,2.8241194 l 0,21.1753957 -11.9996578,0 L 32,52.000485 55.999315,28.001171 l -11.999658,0 0,-21.1753957 c 0,-1.5639554 -1.685951,-2.8239194 -2.885917,-2.8239194 l -18.22748,0 z M 6.8015194,54.000228 c -1.5511557,0 -2.80072,1.337962 -2.80072,2.999915 0,1.661952 1.2495643,2.999914 2.80072,2.999914 l 50.3985616,0 c 1.549955,0 2.79992,-1.337962 2.79992,-2.999914 0,-1.661953 -1.249965,-2.999915 -2.79992,-2.999915 l -50.3985616,0 z"/>
 <path style="opacity:0.2;fill:#ffffff" d="M 22.886719 4.0019531 C 21.686753 4.0019531 20.151995 5.2690163 20 6.8261719 L 20 7.8261719 C 20.151995 6.2690163 21.686753 5.0019531 22.886719 5.0019531 L 41.113281 5.0019531 C 42.313247 5.0019531 44 6.2620165 44 7.8261719 L 44 6.8261719 C 44 5.2620165 42.313247 4.0019531 41.113281 4.0019531 L 22.886719 4.0019531 z M 8 28 L 9 29 L 20 29 L 20 28 L 8 28 z M 44 28 L 44 29 L 55 29 L 56 28 L 44 28 z M 6.8007812 54 C 5.2496254 54 4 55.338047 4 57 C 4 57.174335 4.0177363 57.343671 4.046875 57.507812 C 4.2662505 56.083331 5.4072676 55 6.8007812 55 L 32 55 L 57.199219 55 C 58.591654 55 59.733695 56.083331 59.953125 57.507812 C 59.982288 57.343671 60 57.174335 60 57 C 60 55.338047 58.749174 54 57.199219 54 L 32 54 L 6.8007812 54 z"/>
</svg>
